!!!ONB: MCCC : ILB0178_02 : Extracted Monophonic Melody
!!!COM: Beethoven, Ludwig van
!!!OPR: Piano Sonata No.17
!!!OMV: 2
!!!SCT: Op.31 No.2
!!!ODT: 1801///
**kern
*thru
*staff1
*clefF4
*k[b-e-]
*B-:
*M3/4
*MM60
=1
2.B-
=2
8..dd
32ee-
4ff
4B-
=3
2.A
=4
8..aa
32bb-
4ccc
4e-
=5
2.d
=6
8..dd
32ee-
4ff
4ff
=7
4ff
8ee-
8dd
8cc
8cc
=8
8cc
16dd
16cc
8cc
8r
16r
16F
16G
16A
=9
2.B-
=10
8dd[
16.dd]
32ee-
4ff
4B-
=11
2.A
=12
8ccc[
16.ccc]
32ddd
4eee-
4g-
=13
2f
4r
=14
8ccc[
16.ccc]
32ddd
4eee-
4ee-
=15
8dd
8r
2gg
=16
2ff
8a
8r
=17
8b-
8r
4r
4r
=18
4e-
4d
4c#
=19
4c#
8d
8r
4r
=20
[4c
8c]
8e-
8c
8A
=21
4c
8B-
8r
4r
=22
4b-
4g
4f
=23
4.e
8e
8f
8g
=24
8.g
16e
8f
8f
8g
8a
=25
8.a
16f#
8g
8g
8a
8b-
=26
8.b-
16g#
8a
8a
8b
8b
=27
8cc
4g
8g
8b
8g
=28
8cc
4g
8g
8b
8g
=29
8cc
4g
4e
[8c
=30
8c]
8r
4r
16r
32d
32e
32f
32g
32a
32b-
=31
[4cc
8..cc]
32a
8..ff
32dd
=32
[4cc
8..cc]
32a
8..b-
32g
=33
2f
16a
16g
16f
16g
=34
8..g
32g#
8a
4.r
=35
[4cc
8..cc]
32a
8..ff
32ee-
=36
[4cc
8..cc]
32a
16cc
8b-
16g
=37
2f
4c
=38
8A
8r
4r
8r
8f
=39
4f
4.g-
8g-
=40
4g-
4.a
8a
=41
4a
4.cc
8cc
=42
8cc
[8ee-
16ee-]
32dd
32cc
32b-
32a
32g
32f
32e
32e-
32d
32c
32B-
32A
32e-
32A
=43
2.B-
=44
8dd[
16.dd]
32ee-
4ff
4B-
=45
2.A
=46
8aa[
16.aa]
32bb-
4ccc
4e-
=47
2.d
=48
8dd[
16.dd]
32ee-
4ff
4ff
=49
4ff
8ee-
8dd
8cc
8cc
=50
8cc
16dd
16cc
8cc
8r
32r
32F
32G
32F
32E
32F
32G
32A
=51
2.B-
=52
[8dd
16.dd]
32ee-
4ff
4B-
=53
2.A
=54
[8ccc
16.ccc]
32ddd
4eee-
4g-
=55
2f
8f
16r
16ccc
=56
[8ccc
16.ccc]
32ddd
4eee-
4ee-
=57
8dd
8r
2gg
=58
2ff
8a
8r
=59
8b-
8r
4r
4r
=60
4f
4e-
4d
=61
4d
8e-
8r
4r
=62
4a-
4g
4f#
=63
4f#
[4g
8g]
8g
=64
4ee-
4cc
4b-
=65
4.a
8a
8b-
8cc
=66
8.cc
16a
8b-
8b-
8cc
8dd
=67
[8.dd
16dd]
8cc
8cc
8dd
8ee-
=68
[8.ee-
16ee-]
8dd
8dd
8ee
8ee
=69
8ff
4cc
8cc
8ee
8cc
=70
8ff
4cc
8cc
8ee
8cc
=71
8ff
4cc
4a
[8f
=72
8f]
8r
4r
16r
32g
32a
32b-
32cc
32dd
32ee-
=73
[4ff
8..ff]
32dd
8..bb-
32gg
=74
[4ff
8..ff]
32dd
8..ee-
32cc
=75
2b-
16dd
16cc
16b-
16cc
=76
8.cc
16cc#
8dd
8r
32r
32f
32g
32a
32b-
32cc
32dd
32ee-
=77
[4ff
8..ff]
32dd
8..bb-
32gg
=78
[4ff
8..ff]
32dd
16ff
8ee-
16cc
=79
2b-
4f
=80
8d
8r
4r
4r
=81
4B-
4.c-
8c-
=82
4c-
4.d
8d
=83
4d
4f
4a-
=84
2cc-
8b-
8a-
=85
4f#
4.g
8b-
=86
2ee-
8cc
8a
=87
4cc
[4b-
8b-]
8dd
=88
8ff
4.ee-
8cc
8a
=89
8b-
8r
4r
32r
32f
32e
32f
32g
32a
32b-
32cc
=90
8..dd
32ee-
4ff
4ee-
=91
8dd
8r
4r
4r
=92
2.r
=93
8ccc[
16.ccc]
32ddd
4eee-
4g-
=94
2.f
=95
8ccc[
16.ccc]
32ddd
4eee-
4ee-
=96
8dd
8r
2gg
=97
2ff
8a
8r
=98
8b-
8ff
8dd
8cc-
8b-
8a-
=99
8g
8b-
8e-
8g
8c
16f
16e-
=100
4.r
4dd
8dd
=101
8ff
8ee-
8r
4ee-
8a
=102
8b-
16r
16a
8b-
16r
16cc
8dd
16r
16aa
=103
8bb-
16.ddd
32ccc
4ccc
8bb-
8r
==
*-
